X: 20641
M: C|
L: 1/8
K: Gm
{A}B2dA {A}B2dA | {A}B2fB AFFA |\
{A}B2df bfdB | AdD^F G2G :|\
dgga bgaf | cffg afcf |\
dgbg fbdB | AdD^F G2G |]


